docs/figs/debug-regions-obstacles.svg

<svg class="typst-doc" viewBox="0 0 595.2755905511812 841.8897637795276" width="595.2755905511812pt" height="841.8897637795276pt" xmlns="http://www.w3.org/2000/svg" xmlns:xlink="http://www.w3.org/1999/xlink" xmlns:h5="http://www.w3.org/1999/xhtml">
    <path class="typst-shape" fill="#ffffff" fill-rule="nonzero" d="M 0 0v 841.8898 h 595.2756 v -841.8898 Z "/>
    <g>
        <g class="typst-group">
            <g>
                <g class="typst-group" transform="matrix(1 0 0 1 325.98425196850394 572.5984251968504)">
                    <g>
                        <path class="typst-shape" fill="#ffdabb" fill-rule="nonzero" d="M 0 0m 0 5.6692915 c 0 -3.1310632 2.5382283 -5.6692915 5.6692915 -5.6692915 h 187.08661 c 3.1310577 0 5.6692963 2.5382283 5.6692963 5.6692915 v 187.08661 c 0 3.1310577 -2.5382385 5.6692963 -5.6692963 5.6692963 h -187.08661 c -3.1310632 0 -5.6692915 -2.5382385 -5.6692915 -5.6692963 Z "/>
                        <g class="typst-text" transform="matrix(1 0 0 -1 91.98798905019684 108.32978592519684)">
                            <use xlink:href="#g7E1C1581A47EA20F4BC012E6CBAFD23D" x="0" y="0" fill="#000000" fill-rule="nonzero"/>
                        </g>
                    </g>
                </g>
                <g class="typst-group" transform="matrix(1 0 0 1 320.98425196850394 567.5984251968504)">
                    <g>
                        <path class="typst-shape" fill="url(#pD740D33C47DB841D337C67DBC336640A)" fill-rule="nonzero" stroke="#ff4136" stroke-width="1" stroke-linecap="butt" stroke-linejoin="miter" stroke-miterlimit="4" d="M 0 0v 208.4252 h 208.4252 v -208.4252 Z "/>
                    </g>
                </g>
                <g class="typst-group" transform="matrix(1 0 0 1 226.77165354330708 378.4251968503937)">
                    <g>
                        <path class="typst-shape" fill="#b2d5f4" fill-rule="nonzero" d="M 0 0m 0 5.6692915 c 0 -3.1310632 2.5382283 -5.6692915 5.6692915 -5.6692915 h 130.39369 c 3.131073 0 5.6692963 2.5382283 5.6692963 5.6692915 v 73.70079 c 0 3.1310654 -2.5382233 5.6692886 -5.6692963 5.6692886 h -130.39369 c -3.1310632 0 -5.6692915 -2.5382233 -5.6692915 -5.6692886 Z "/>
                        <g class="typst-text" transform="matrix(1 0 0 -1 63.64153235728347 51.63687253937008)">
                            <use xlink:href="#g5280DEB5F232DE6527639522E7CB0EC7" x="0" y="0" fill="#000000" fill-rule="nonzero"/>
                        </g>
                    </g>
                </g>
                <g class="typst-group" transform="matrix(1 0 0 1 221.77165354330708 373.4251968503937)">
                    <g>
                        <path class="typst-shape" fill="url(#pD740D33C47DB841D337C67DBC336640A)" fill-rule="nonzero" stroke="#ff4136" stroke-width="1" stroke-linecap="butt" stroke-linejoin="miter" stroke-miterlimit="4" d="M 0 0v 95.03937 h 151.73228 v -95.03937 Z "/>
                    </g>
                </g>
                <g class="typst-group" transform="matrix(1 0 0 1 297.6377952755906 70.86614173228347)">
                    <g>
                        <path class="typst-shape" fill="#c0f0c6" fill-rule="nonzero" d="M 0 0m 0 5.6692915 c 0 -3.1310632 2.5382283 -5.6692915 5.6692915 -5.6692915 h 215.43306 c 3.131073 0 5.6692963 2.5382283 5.6692963 5.6692915 v 102.04725 c 0 3.1310577 -2.5382233 5.6692886 -5.6692963 5.6692886 h -215.43306 c -3.1310632 0 -5.6692915 -2.538231 -5.6692915 -5.6692886 Z "/>
                        <g class="typst-text" transform="matrix(1 0 0 -1 106.16121739665354 65.81010088582677)">
                            <use xlink:href="#gE31739A2AAD0F2124B565A76E28C49CC" x="0" y="0" fill="#000000" fill-rule="nonzero"/>
                        </g>
                    </g>
                </g>
                <g class="typst-group" transform="matrix(1 0 0 1 292.6377952755906 65.86614173228347)">
                    <g>
                        <path class="typst-shape" fill="url(#pD740D33C47DB841D337C67DBC336640A)" fill-rule="nonzero" stroke="#ff4136" stroke-width="1" stroke-linecap="butt" stroke-linejoin="miter" stroke-miterlimit="4" d="M 0 0v 123.385826 h 236.77165 v -123.385826 Z "/>
                    </g>
                </g>
            </g>
        </g>
    </g>
    <defs id="glyph">
        <symbol id="g7E1C1581A47EA20F4BC012E6CBAFD23D" overflow="visible">
            <path d="M 0 0m 3.1640625 1.9921875 h 3.6796875 v 13.371094 l -3.9609375 -0.890625 v 2.15625 l 3.9375 0.8671875 h 2.3671875 v -15.503906 h 3.6328125 v -1.9921875 h -9.65625 v 1.9921875 Z "/>
        </symbol>
        <symbol id="g5280DEB5F232DE6527639522E7CB0EC7" overflow="visible">
            <path d="M 0 0m 4.3710938 1.9921875 h 8.0390625 v -1.9921875 h -10.628906 v 1.9921875 q 2.1914063 2.3085938 3.8320313 4.078125 q 1.640625 1.7695313 2.2617188 2.4960938 q 1.171875 1.4296875 1.5820313 2.3144531 q 0.41015625 0.8847656 0.41015625 1.8105469 q 0 1.4648438 -0.8613281 2.296875 q -0.8613281 0.83203125 -2.3613281 0.83203125 q -1.0664063 0 -2.2382813 -0.38671875 q -1.171875 -0.38671875 -2.484375 -1.171875 v 2.390625 q 1.2070313 0.57421875 2.3730469 0.8671875 q 1.1660156 0.29296875 2.3027344 0.29296875 q 2.5664063 0 4.1308594 -1.3652344 q 1.5644531 -1.3652344 1.5644531 -3.5800781 q 0 -1.125 -0.5214844 -2.25 q -0.5214844 -1.125 -1.6933594 -2.484375 q -0.65625 -0.76171875 -1.9042969 -2.109375 q -1.2480469 -1.3476563 -3.8027344 -4.03125 Z "/>
        </symbol>
        <symbol id="gE31739A2AAD0F2124B565A76E28C49CC" overflow="visible">
            <path d="M 0 0m 9.09375 9.363281 q 1.7226563 -0.45703125 2.6367188 -1.6230469 q 0.9140625 -1.1660156 0.9140625 -2.9121094 q 0 -2.4140625 -1.6230469 -3.7910156 q -1.6230469 -1.3769531 -4.4941406 -1.3769531 q -1.2070313 0 -2.4609375 0.22265625 q -1.2539063 0.22265625 -2.4609375 0.64453125 v 2.3554688 q 1.1953125 -0.62109375 2.3554688 -0.92578125 q 1.1601563 -0.3046875 2.3085938 -0.3046875 q 1.9453125 0 2.9882813 0.87890625 q 1.0429688 0.87890625 1.0429688 2.53125 q 0 1.5234375 -1.0429688 2.4199219 q -1.0429688 0.8964844 -2.8242188 0.8964844 h -1.8046875 v 1.9453125 h 1.8046875 q 1.6289063 0 2.5429688 0.71484375 q 0.9140625 0.71484375 0.9140625 1.9921875 q 0 1.3476563 -0.8496094 2.0683594 q -0.8496094 0.7207031 -2.4199219 0.7207031 q -1.0429688 0 -2.15625 -0.234375 q -1.1132813 -0.234375 -2.3320313 -0.703125 v 2.1796875 q 1.4179688 0.375 2.5253906 0.5625 q 1.1074219 0.1875 1.9628906 0.1875 q 2.5546875 0 4.0839844 -1.2832031 q 1.5292969 -1.2832031 1.5292969 -3.4042969 q 0 -1.4414063 -0.8027344 -2.4023438 q -0.8027344 -0.9609375 -2.3378906 -1.359375 Z "/>
        </symbol>
    </defs>
    <defs id="tilings">
        <pattern id="tF716D9EF4B3CABADA181011AA5CFA973" width="30" height="30" patternUnits="userSpaceOnUse" viewBox="0 0 30.000 30.000">
            <g>
                <g class="typst-group">
                    <g>
                        <path class="typst-shape" fill="#ff41360d" fill-rule="nonzero" d="M 0 0v 30 h 30 v -30 Z "/>
                    </g>
                </g>
                <path class="typst-shape" fill="none" stroke="#ff4136" stroke-width="0.1" stroke-linecap="butt" stroke-linejoin="miter" stroke-miterlimit="4" transform="matrix(1 0 0 1 7.5 7.5)" d="M 0 0l 15 15 "/>
                <path class="typst-shape" fill="none" stroke="#ff4136" stroke-width="0.1" stroke-linecap="butt" stroke-linejoin="miter" stroke-miterlimit="4" transform="matrix(1 0 0 1 7.5 22.5)" d="M 0 0l 15 -15 "/>
            </g>
        </pattern>
    </defs>
    <defs id="tilings-refs">
        <pattern patternTransform="matrix(1 0 0 1 0 0)" id="pD740D33C47DB841D337C67DBC336640A" href="#tF716D9EF4B3CABADA181011AA5CFA973" xlink:href="#tF716D9EF4B3CABADA181011AA5CFA973"/>
    </defs>
</svg>

<svg class="typst-doc" viewBox="0 0 595.2755905511812 841.8897637795276" width="595.2755905511812pt" height="841.8897637795276pt" xmlns="http://www.w3.org/2000/svg" xmlns:xlink="http://www.w3.org/1999/xlink" xmlns:h5="http://www.w3.org/1999/xhtml">
    <path class="typst-shape" fill="#ffffff" fill-rule="nonzero" d="M 0 0 L 0 841.8898 L 595.2756 841.8898 L 595.2756 0 Z "/>
    <g>
        <g transform="translate(70.86614173228347 70.86614173228347)">
            <g class="typst-group">
                <g>
                    <g transform="translate(255.11811023622047 501.73228346456693)">
                        <g class="typst-group">
                            <g>
                                <g transform="translate(-0 -0)">
                                    <path class="typst-shape" fill="#ffdabb" fill-rule="nonzero" d="M 0 5.6692915 C 0 2.5382283 2.5382283 0 5.6692915 0 L 192.7559 0 C 195.88696 0 198.4252 2.5382283 198.4252 5.6692915 L 198.4252 192.7559 C 198.4252 195.88696 195.88696 198.4252 192.7559 198.4252 L 5.6692915 198.4252 C 2.5382283 198.4252 0 195.88696 0 192.7559 Z "/>
                                </g>
                                <g transform="translate(91.98798905019684 108.32978592519684)">
                                    <g class="typst-text" transform="scale(1, -1)">
                                        <use xlink:href="#gF240486548E416AE1A570F31F6ED1982" x="0" fill="#000000" fill-rule="nonzero"/>
                                    </g>
                                </g>
                            </g>
                        </g>
                    </g>
                    <g transform="translate(250.11811023622047 496.73228346456693)">
                        <g class="typst-group">
                            <g>
                                <g transform="translate(-0 -0)">
                                    <path class="typst-shape" fill="url(#p66BC1ACEBEA5C6998C7490CA09760A00)" fill-rule="nonzero" stroke="#ff4136" stroke-width="1" stroke-linecap="butt" stroke-linejoin="miter" stroke-miterlimit="4" d="M 0 0 L 0 208.4252 L 208.4252 208.4252 L 208.4252 0 Z "/>
                                </g>
                            </g>
                        </g>
                    </g>
                    <g transform="translate(155.90551181102362 307.5590551181102)">
                        <g class="typst-group">
                            <g>
                                <g transform="translate(-0 -0)">
                                    <path class="typst-shape" fill="#b3d5f4" fill-rule="nonzero" d="M 0 5.6692915 C 0 2.5382283 2.5382283 0 5.6692915 0 L 136.06299 0 C 139.19406 0 141.73228 2.5382283 141.73228 5.6692915 L 141.73228 79.37008 C 141.73228 82.501144 139.19406 85.03937 136.06299 85.03937 L 5.6692915 85.03937 C 2.5382283 85.03937 0 82.501144 0 79.37008 Z "/>
                                </g>
                                <g transform="translate(63.64153235728347 51.63687253937008)">
                                    <g class="typst-text" transform="scale(1, -1)">
                                        <use xlink:href="#g21E883D563F2E9D303D6F61E0E635A13" x="0" fill="#000000" fill-rule="nonzero"/>
                                    </g>
                                </g>
                            </g>
                        </g>
                    </g>
                    <g transform="translate(150.90551181102362 302.5590551181102)">
                        <g class="typst-group">
                            <g>
                                <g transform="translate(-0 -0)">
                                    <path class="typst-shape" fill="url(#p66BC1ACEBEA5C6998C7490CA09760A00)" fill-rule="nonzero" stroke="#ff4136" stroke-width="1" stroke-linecap="butt" stroke-linejoin="miter" stroke-miterlimit="4" d="M 0 0 L 0 95.03937 L 151.73228 95.03937 L 151.73228 0 Z "/>
                                </g>
                            </g>
                        </g>
                    </g>
                    <g transform="translate(226.77165354330708 0)">
                        <g class="typst-group">
                            <g>
                                <g transform="translate(-0 -0)">
                                    <path class="typst-shape" fill="#c0f0c6" fill-rule="nonzero" d="M 0 5.6692915 C 0 2.5382283 2.5382283 0 5.6692915 0 L 221.10236 0 C 224.23343 0 226.77165 2.5382283 226.77165 5.6692915 L 226.77165 107.71654 C 226.77165 110.847595 224.23343 113.385826 221.10236 113.385826 L 5.6692915 113.385826 C 2.5382283 113.385826 0 110.847595 0 107.71654 Z "/>
                                </g>
                                <g transform="translate(106.16121739665354 65.81010088582677)">
                                    <g class="typst-text" transform="scale(1, -1)">
                                        <use xlink:href="#g6CA677F4B246D83AD0CBFC3A61C9DD83" x="0" fill="#000000" fill-rule="nonzero"/>
                                    </g>
                                </g>
                            </g>
                        </g>
                    </g>
                    <g transform="translate(221.77165354330708 -5)">
                        <g class="typst-group">
                            <g>
                                <g transform="translate(-0 -0)">
                                    <path class="typst-shape" fill="url(#p66BC1ACEBEA5C6998C7490CA09760A00)" fill-rule="nonzero" stroke="#ff4136" stroke-width="1" stroke-linecap="butt" stroke-linejoin="miter" stroke-miterlimit="4" d="M 0 0 L 0 123.385826 L 236.77165 123.385826 L 236.77165 0 Z "/>
                                </g>
                            </g>
                        </g>
                    </g>
                </g>
            </g>
        </g>
    </g>
    <defs id="glyph">
        <symbol id="gF240486548E416AE1A570F31F6ED1982" overflow="visible">
            <path d="M 3.1640625 1.9921875 L 6.84375 1.9921875 L 6.84375 15.363281 L 2.8828125 14.472656 L 2.8828125 16.628906 L 6.8203125 17.496094 L 9.1875 17.496094 L 9.1875 1.9921875 L 12.8203125 1.9921875 L 12.8203125 0 L 3.1640625 0 L 3.1640625 1.9921875 Z "/>
        </symbol>
        <symbol id="g21E883D563F2E9D303D6F61E0E635A13" overflow="visible">
            <path d="M 4.3710938 1.9921875 L 12.410156 1.9921875 L 12.410156 0 L 1.78125 0 L 1.78125 1.9921875 Q 3.9726563 4.3007813 5.6132813 6.0703125 Q 7.2539063 7.8398438 7.875 8.566406 Q 9.046875 9.996094 9.457031 10.880859 Q 9.8671875 11.765625 9.8671875 12.691406 Q 9.8671875 14.15625 9.005859 14.988281 Q 8.144531 15.8203125 6.6445313 15.8203125 Q 5.578125 15.8203125 4.40625 15.433594 Q 3.234375 15.046875 1.921875 14.261719 L 1.921875 16.652344 Q 3.1289063 17.226563 4.294922 17.519531 Q 5.4609375 17.8125 6.5976563 17.8125 Q 9.1640625 17.8125 10.728516 16.447266 Q 12.292969 15.082031 12.292969 12.8671875 Q 12.292969 11.7421875 11.771484 10.6171875 Q 11.25 9.4921875 10.078125 8.1328125 Q 9.421875 7.3710938 8.173828 6.0234375 Q 6.9257813 4.6757813 4.3710938 1.9921875 Z "/>
        </symbol>
        <symbol id="g6CA677F4B246D83AD0CBFC3A61C9DD83" overflow="visible">
            <path d="M 9.09375 9.363281 Q 10.816406 8.90625 11.730469 7.7402344 Q 12.644531 6.5742188 12.644531 4.828125 Q 12.644531 2.4140625 11.021484 1.0371094 Q 9.3984375 -0.33984375 6.5273438 -0.33984375 Q 5.3203125 -0.33984375 4.0664063 -0.1171875 Q 2.8125 0.10546875 1.6054688 0.52734375 L 1.6054688 2.8828125 Q 2.8007813 2.2617188 3.9609375 1.9570313 Q 5.1210938 1.6523438 6.2695313 1.6523438 Q 8.214844 1.6523438 9.2578125 2.53125 Q 10.300781 3.4101563 10.300781 5.0625 Q 10.300781 6.5859375 9.2578125 7.482422 Q 8.214844 8.378906 6.4335938 8.378906 L 4.6289063 8.378906 L 4.6289063 10.324219 L 6.4335938 10.324219 Q 8.0625 10.324219 8.9765625 11.0390625 Q 9.890625 11.753906 9.890625 13.03125 Q 9.890625 14.378906 9.041016 15.099609 Q 8.191406 15.8203125 6.6210938 15.8203125 Q 5.578125 15.8203125 4.4648438 15.5859375 Q 3.3515625 15.3515625 2.1328125 14.8828125 L 2.1328125 17.0625 Q 3.5507813 17.4375 4.658203 17.625 Q 5.765625 17.8125 6.6210938 17.8125 Q 9.175781 17.8125 10.705078 16.529297 Q 12.234375 15.246094 12.234375 13.125 Q 12.234375 11.683594 11.431641 10.722656 Q 10.628906 9.761719 9.09375 9.363281 Z "/>
        </symbol>
    </defs>
    <defs id="tilings">
        <pattern id="t2F67AF8BD27593D2058F42E652AA4BE7" width="30" height="30" patternUnits="userSpaceOnUse" viewBox="0 0 30.000 30.000">
            <g>
                <g transform="translate(0 0)">
                    <g class="typst-group">
                        <g>
                            <g transform="translate(-0 -0)">
                                <path class="typst-shape" fill="#ff41360d" fill-rule="nonzero" d="M 0 0 L 0 30 L 30 30 L 30 0 Z "/>
                            </g>
                        </g>
                    </g>
                </g>
                <g transform="translate(7.5 7.5)">
                    <path class="typst-shape" fill="none" stroke="#ff4136" stroke-width="0.1" stroke-linecap="butt" stroke-linejoin="miter" stroke-miterlimit="4" d="M 0 0 L 15 15 "/>
                </g>
                <g transform="translate(7.5 22.5)">
                    <path class="typst-shape" fill="none" stroke="#ff4136" stroke-width="0.1" stroke-linecap="butt" stroke-linejoin="miter" stroke-miterlimit="4" d="M 0 0 L 15 -15 "/>
                </g>
            </g>
        </pattern>
    </defs>
    <defs id="tilings-refs">
        <pattern patternTransform="matrix(1 0 0 1 0 0)" id="p66BC1ACEBEA5C6998C7490CA09760A00" href="#t2F67AF8BD27593D2058F42E652AA4BE7" xlink:href="#t2F67AF8BD27593D2058F42E652AA4BE7"/>
    </defs>
</svg>
